X: 33113
T: Prince's Feather, The
R: reel
M: 4/4
K: Fmajor
|:cA(3AAA cAcd|cAGA FAcd|cdfd cFAc|dG(3GGG dG(3GGG|
dGcB AcBG|AFFE Fffe|~f2cB AcBG|1 AFFE ~F3A:|2 AFFA ~G3F||
|:GC(3CCC EGAc|BAGA F2cF|dFcF Acfe|dcBA G^FGA|
GC(3CCC EGAc|BAGA Fffe|~f2cB AcBG|1 AFFA ~G3F:|2 AFFE ~F3A||

